imgs/background.svg

<?xml version="1.0" encoding="UTF-8" standalone="no"?>
<svg
   xmlns:dc="http://purl.org/dc/elements/1.1/"
   xmlns:cc="http://creativecommons.org/ns#"
   xmlns:rdf="http://www.w3.org/1999/02/22-rdf-syntax-ns#"
   xmlns:svg="http://www.w3.org/2000/svg"
   xmlns="http://www.w3.org/2000/svg"
   xmlns:xlink="http://www.w3.org/1999/xlink"
   xmlns:sodipodi="http://sodipodi.sourceforge.net/DTD/sodipodi-0.dtd"
   xmlns:inkscape="http://www.inkscape.org/namespaces/inkscape"
   version="1.1"
   preserveAspectRatio="none"
   x="0px"
   y="0px"
   width="2048"
   height="1420"
   viewBox="0 0 2048 1420"
   id="svg78"
   sodipodi:docname="background.svg"
   inkscape:version="0.92.3 (2405546, 2018-03-11)">
  <metadata
     id="metadata82">
    <rdf:RDF>
      <cc:Work
         rdf:about="">
        <dc:format>image/svg+xml</dc:format>
        <dc:type
           rdf:resource="http://purl.org/dc/dcmitype/StillImage" />
        <dc:title></dc:title>
      </cc:Work>
    </rdf:RDF>
  </metadata>
  <sodipodi:namedview
     pagecolor="#ffffff"
     bordercolor="#666666"
     borderopacity="1"
     objecttolerance="10"
     gridtolerance="10"
     guidetolerance="10"
     inkscape:pageopacity="0"
     inkscape:pageshadow="2"
     inkscape:window-width="1366"
     inkscape:window-height="705"
     id="namedview80"
     showgrid="false"
     scale-x="1"
     inkscape:zoom="0.1484375"
     inkscape:cx="1024"
     inkscape:cy="712"
     inkscape:window-x="-8"
     inkscape:window-y="-8"
     inkscape:window-maximized="1"
     inkscape:current-layer="svg78" />
  <defs
     id="defs70">
    <linearGradient
       id="Gradient_1"
       gradientUnits="userSpaceOnUse"
       x1="-67.087502"
       y1="197.91251"
       x2="165.8875"
       y2="1099.0875"
       spreadMethod="pad">
      <stop
         offset="11.372549019607844%"
         stop-color="#840D99"
         id="stop2" />
      <stop
         offset="39.6078431372549%"
         stop-color="#B825AA"
         id="stop4" />
      <stop
         offset="64.70588235294117%"
         stop-color="#DF36B6"
         id="stop6" />
      <stop
         offset="85.09803921568627%"
         stop-color="#F641BE"
         id="stop8" />
      <stop
         offset="97.25490196078431%"
         stop-color="#FF45C1"
         id="stop10" />
    </linearGradient>
    <linearGradient
       id="Gradient_2"
       gradientUnits="userSpaceOnUse"
       x1="733.09998"
       y1="-89.949997"
       x2="1308.6"
       y2="1470.35"
       spreadMethod="pad">
      <stop
         offset="0%"
         stop-color="#2464EC"
         id="stop13" />
      <stop
         offset="100%"
         stop-color="#3F9AFF"
         id="stop15" />
    </linearGradient>
    <linearGradient
       id="Gradient_3"
       gradientUnits="userSpaceOnUse"
       x1="-59.137501"
       y1="515.71252"
       x2="341.63751"
       y2="1165.6875"
       spreadMethod="pad">
      <stop
         offset="0%"
         stop-color="#FF0C95"
         id="stop18" />
      <stop
         offset="16.07843137254902%"
         stop-color="#FA3978"
         id="stop20" />
      <stop
         offset="45.490196078431374%"
         stop-color="#F18745"
         id="stop22" />
      <stop
         offset="70.19607843137256%"
         stop-color="#EBC020"
         id="stop24" />
      <stop
         offset="88.23529411764706%"
         stop-color="#E7E409"
         id="stop26" />
      <stop
         offset="97.6470588235294%"
         stop-color="#E5F100"
         id="stop28" />
    </linearGradient>
    <linearGradient
       id="Gradient_4"
       gradientUnits="userSpaceOnUse"
       x1="1947.525"
       y1="524.4375"
       x2="1725.675"
       y2="-23.737499"
       spreadMethod="pad">
      <stop
         offset="11.372549019607844%"
         stop-color="#840D99"
         id="stop31" />
      <stop
         offset="39.6078431372549%"
         stop-color="#B825AA"
         id="stop33" />
      <stop
         offset="64.70588235294117%"
         stop-color="#DF36B6"
         id="stop35" />
      <stop
         offset="85.09803921568627%"
         stop-color="#F641BE"
         id="stop37" />
      <stop
         offset="97.25490196078431%"
         stop-color="#FF45C1"
         id="stop39" />
    </linearGradient>
    <linearGradient
       id="Gradient_5"
       gradientUnits="userSpaceOnUse"
       x1="1844.9"
       y1="1937.1375"
       x2="1670.8"
       y2="300.76251"
       spreadMethod="pad">
      <stop
         offset="0%"
         stop-color="#00C37E"
         id="stop42" />
      <stop
         offset="13.333333333333334%"
         stop-color="#31CD63"
         id="stop44" />
      <stop
         offset="29.80392156862745%"
         stop-color="#67D845"
         id="stop46" />
      <stop
         offset="46.27450980392157%"
         stop-color="#94E12D"
         id="stop48" />
      <stop
         offset="61.568627450980394%"
         stop-color="#B7E819"
         id="stop50" />
      <stop
         offset="76.07843137254902%"
         stop-color="#D0ED0B"
         id="stop52" />
      <stop
         offset="89.41176470588235%"
         stop-color="#E0F003"
         id="stop54" />
      <stop
         offset="100%"
         stop-color="#E5F100"
         id="stop56" />
    </linearGradient>
    <g
       id="Symbol_9_0_Layer0_0_FILL">
      <path
         d="M 0.85,4.65 H 0.15 L 0,4.7 v 1177 q 0.07480469,-0.035 0.15,-0.05 0.0521484,-0.025 0.1,-0.05 92.279883,-44.0211 150.35,-132.1 49.7,-75.5 72,-179.45 18.55,-86.5 16.45,-182.9 -1.8,-79.95 -16.3,-142.4 Q 208,481.45 173.1,425.85 164.5,412.2 142.75,381.1 123.2,353.25 113,336.15 80.35,281 68.55,215.05 53.5,130.55 65.8,2.65 Z"
         id="path59"
         inkscape:connector-curvature="0"
         style="fill:url(#Gradient_1);stroke:none" />
      <path
         d="m 0.85,4.65 v -0.6 l 11.7,-4 H 0.15 v 4.6 h 0.7 m 2047.8,-2.7 h -6.1 V 2 h 3.5 v 1419.35 h -207.8 q -0.3479,0.9771 -0.7,1.95 H 1715.7 q 7.25,-129.65 32.25,-343.85 35.85,-631.55 29.15,-802.9 -6.75,-171.35 -43.5,-274.6 H 1255.9 L 1255.95,0 192.4,0.05 q 128.99531,447.34453 27.8,1421.3 H 0.2 L 0.25,1181.6 q -0.0478516,0.025 -0.1,0.05 v 242.8 H 1308.1 v -1.15 l 740.55,0.05 z"
         id="path61"
         inkscape:connector-curvature="0"
         style="fill:url(#Gradient_2);stroke:none" />
      <path
         d="M 192.4,0.05 V 0 H 12.7 l -0.15,0.05 -11.7,4 v 0.6 l 64.95,-2 q -12.3,127.9 2.75,212.4 11.8,65.95 44.45,121.1 10.2,17.1 29.75,44.95 21.75,31.1 30.35,44.75 34.9,55.6 49.65,118.9 14.5,62.45 16.3,142.4 2.1,96.4 -16.45,182.9 Q 200.3,974 150.6,1049.5 92.529883,1137.5789 0.25,1181.6 L 0.2,1421.35 h 220 Q 321.39531,447.39453 192.4,0.05 Z"
         id="path63"
         inkscape:connector-curvature="0"
         style="fill:url(#Gradient_3);stroke:none" />
      <path
         d="m 1813.3,196.8 q -12.2,-36.4 -18.65,-60.6 -20.1,-75.75 -14.6,-134.25 h -46.45 q 36.75,103.25 43.5,274.6 6.7,171.35 -29.15,802.9 -25,214.2 -32.25,343.85 h 121.85 q 0.3521,-0.9729 0.7,-1.95 h -25.4 q -0.1,-3.6 -0.35,-7.9 10.25,-26 -6.6,-28.4 -16.85,-2.4 -15.05,-125.4 1.8,-123 22.5,-165.9 20.75,-42.9 21.4,-115.05 -27.15,-73.95 -11.55,-85.25 15.55,-11.35 5.2,-29.4 -10.35,-18.05 -2.25,-37.95 20.05,28.5 8.7,4.6 -24.7,-50.85 -23.85,-134.85 0.6,-59.35 15.95,-161.35 14.7,-88.35 16.2,-147.95 1.8,-74.95 -14.6,-141.95 -2.9,-10.7 -15.25,-47.8 M 2042.55,2 V 1.95 h -4.1 z"
         id="path65"
         inkscape:connector-curvature="0"
         style="fill:url(#Gradient_4);stroke:none" />
      <path
         d="m 2046.05,2 h -3.5 l -4.1,-0.05 h -258.4 q -5.5,58.5 14.6,134.25 6.45,24.2 18.65,60.6 12.35,37.1 15.25,47.8 16.4,67 14.6,141.95 -1.5,59.6 -16.2,147.95 -15.35,102 -15.95,161.35 -0.85,84 23.85,134.85 11.35,23.9 -8.7,-4.6 -8.1,19.9 2.25,37.95 10.35,18.05 -5.2,29.4 -15.6,11.3 11.55,85.25 -0.65,72.15 -21.4,115.05 -20.7,42.9 -22.5,165.9 -1.8,123 15.05,125.4 16.85,2.4 6.6,28.4 0.25,4.3 0.35,7.9 h 25.4 207.8 z"
         id="path67"
         inkscape:connector-curvature="0"
         style="fill:url(#Gradient_5);stroke:none" />
    </g>
  </defs>
  <g
     id="g76"
     transform="translate(0,-4)">
    <g
       id="g74">
      <use
         xlink:href="#Symbol_9_0_Layer0_0_FILL"
         id="use72"
         x="0"
         y="0"
         width="100%"
         height="100%" />
    </g>
  </g>
</svg>

<svg xmlns="http://www.w3.org/2000/svg" version="1.1" xmlns:xlink="http://www.w3.org/1999/xlink" preserveAspectRatio="none" x="0px" y="0px" width="2048px" height="1424px" viewBox="0 0 2048 1424">
<defs>
<linearGradient id="Gradient_1" gradientUnits="userSpaceOnUse" x1="-67.0875" y1="197.91249999999997" x2="165.88750000000002" y2="1099.0875" spreadMethod="pad">
<stop  offset="11.372549019607844%" stop-color="#840D99"/>

<stop  offset="39.6078431372549%" stop-color="#B825AA"/>

<stop  offset="64.70588235294117%" stop-color="#DF36B6"/>

<stop  offset="85.09803921568627%" stop-color="#F641BE"/>

<stop  offset="97.25490196078431%" stop-color="#FF45C1"/>
</linearGradient>

<linearGradient id="Gradient_2" gradientUnits="userSpaceOnUse" x1="733.1" y1="-89.95000000000005" x2="1308.6" y2="1470.3500000000001" spreadMethod="pad">
<stop  offset="0%" stop-color="#2464EC"/>

<stop  offset="100%" stop-color="#3F9AFF"/>
</linearGradient>

<linearGradient id="Gradient_3" gradientUnits="userSpaceOnUse" x1="-59.13750000000002" y1="515.7125000000001" x2="341.63750000000005" y2="1165.6875" spreadMethod="pad">
<stop  offset="0%" stop-color="#FF0C95"/>

<stop  offset="16.07843137254902%" stop-color="#FA3978"/>

<stop  offset="45.490196078431374%" stop-color="#F18745"/>

<stop  offset="70.19607843137256%" stop-color="#EBC020"/>

<stop  offset="88.23529411764706%" stop-color="#E7E409"/>

<stop  offset="97.6470588235294%" stop-color="#E5F100"/>
</linearGradient>

<linearGradient id="Gradient_4" gradientUnits="userSpaceOnUse" x1="1947.5249999999999" y1="524.4375" x2="1725.675" y2="-23.73750000000004" spreadMethod="pad">
<stop  offset="11.372549019607844%" stop-color="#840D99"/>

<stop  offset="39.6078431372549%" stop-color="#B825AA"/>

<stop  offset="64.70588235294117%" stop-color="#DF36B6"/>

<stop  offset="85.09803921568627%" stop-color="#F641BE"/>

<stop  offset="97.25490196078431%" stop-color="#FF45C1"/>
</linearGradient>

<linearGradient id="Gradient_5" gradientUnits="userSpaceOnUse" x1="1844.8999999999999" y1="1937.1375" x2="1670.8" y2="300.76250000000005" spreadMethod="pad">
<stop  offset="0%" stop-color="#00C37E"/>

<stop  offset="13.333333333333334%" stop-color="#31CD63"/>

<stop  offset="29.80392156862745%" stop-color="#67D845"/>

<stop  offset="46.27450980392157%" stop-color="#94E12D"/>

<stop  offset="61.568627450980394%" stop-color="#B7E819"/>

<stop  offset="76.07843137254902%" stop-color="#D0ED0B"/>

<stop  offset="89.41176470588235%" stop-color="#E0F003"/>

<stop  offset="100%" stop-color="#E5F100"/>
</linearGradient>

<g id="Symbol_9_0_Layer0_0_FILL">
<path fill="url(#Gradient_1)" stroke="none" d="
M 0.85 4.65
L 0.15 4.65 0 4.7 0 1181.7
Q 0.0748046875 1181.664453125 0.15 1181.65 0.2021484375 1181.6251953125 0.25 1181.6 92.5298828125 1137.57890625 150.6 1049.5 200.3 974 222.6 870.05 241.15 783.55 239.05 687.15 237.25 607.2 222.75 544.75 208 481.45 173.1 425.85 164.5 412.2 142.75 381.1 123.2 353.25 113 336.15 80.35 281 68.55 215.05 53.5 130.55 65.8 2.65
L 0.85 4.65 Z"/>

<path fill="url(#Gradient_2)" stroke="none" d="
M 0.85 4.65
L 0.85 4.05 12.55 0.05 0.15 0.05 0.15 4.65 0.85 4.65
M 2048.65 1.95
L 2042.55 1.95 2042.55 2 2046.05 2 2046.05 1421.35 1838.25 1421.35
Q 1837.9021484375 1422.3271484375 1837.55 1423.3
L 1715.7 1423.3
Q 1722.95 1293.65 1747.95 1079.45 1783.8 447.9 1777.1 276.55 1770.35 105.2 1733.6 1.95
L 1255.9 1.95 1255.95 0 192.4 0.05
Q 321.3953125 447.39453125 220.2 1421.35
L 0.2 1421.35 0.25 1181.6
Q 0.2021484375 1181.6251953125 0.15 1181.65
L 0.15 1424.45 1308.1 1424.45 1308.1 1423.3 2048.65 1423.35 2048.65 1.95 Z"/>

<path fill="url(#Gradient_3)" stroke="none" d="
M 192.4 0.05
L 192.4 0 12.7 0 12.55 0.05 0.85 4.05 0.85 4.65 65.8 2.65
Q 53.5 130.55 68.55 215.05 80.35 281 113 336.15 123.2 353.25 142.75 381.1 164.5 412.2 173.1 425.85 208 481.45 222.75 544.75 237.25 607.2 239.05 687.15 241.15 783.55 222.6 870.05 200.3 974 150.6 1049.5 92.5298828125 1137.57890625 0.25 1181.6
L 0.2 1421.35 220.2 1421.35
Q 321.3953125 447.39453125 192.4 0.05 Z"/>

<path fill="url(#Gradient_4)" stroke="none" d="
M 1813.3 196.8
Q 1801.1 160.4 1794.65 136.2 1774.55 60.45 1780.05 1.95
L 1733.6 1.95
Q 1770.35 105.2 1777.1 276.55 1783.8 447.9 1747.95 1079.45 1722.95 1293.65 1715.7 1423.3
L 1837.55 1423.3
Q 1837.9021484375 1422.3271484375 1838.25 1421.35
L 1812.85 1421.35
Q 1812.75 1417.75 1812.5 1413.45 1822.75 1387.45 1805.9 1385.05 1789.05 1382.65 1790.85 1259.65 1792.65 1136.65 1813.35 1093.75 1834.1 1050.85 1834.75 978.7 1807.6 904.75 1823.2 893.45 1838.75 882.1 1828.4 864.05 1818.05 846 1826.15 826.1 1846.2 854.6 1834.85 830.7 1810.15 779.85 1811 695.85 1811.6 636.5 1826.95 534.5 1841.65 446.15 1843.15 386.55 1844.95 311.6 1828.55 244.6 1825.65 233.9 1813.3 196.8
M 2042.55 2
L 2042.55 1.95 2038.45 1.95 2042.55 2 Z"/>

<path fill="url(#Gradient_5)" stroke="none" d="
M 2046.05 2
L 2042.55 2 2038.45 1.95 1780.05 1.95
Q 1774.55 60.45 1794.65 136.2 1801.1 160.4 1813.3 196.8 1825.65 233.9 1828.55 244.6 1844.95 311.6 1843.15 386.55 1841.65 446.15 1826.95 534.5 1811.6 636.5 1811 695.85 1810.15 779.85 1834.85 830.7 1846.2 854.6 1826.15 826.1 1818.05 846 1828.4 864.05 1838.75 882.1 1823.2 893.45 1807.6 904.75 1834.75 978.7 1834.1 1050.85 1813.35 1093.75 1792.65 1136.65 1790.85 1259.65 1789.05 1382.65 1805.9 1385.05 1822.75 1387.45 1812.5 1413.45 1812.75 1417.75 1812.85 1421.35
L 1838.25 1421.35 2046.05 1421.35 2046.05 2 Z"/>
</g>
</defs>

<g transform="matrix( 1, 0, 0, 1, 0,0) ">
<g transform="matrix( 1, 0, 0, 1, 0,0) ">
<use xlink:href="#Symbol_9_0_Layer0_0_FILL"/>
</g>
</g>
</svg>
